src/categories-icons-sprite/categories/svg-cat-home-linens.svg

<svg width="32" height="24" viewBox="0 0 32 24" fill="none" xmlns="http://www.w3.org/2000/svg">
<path class="p-E47700" d="M3.17578 2C3.17578 0.89543 4.07121 0 5.17578 0H26.5809C27.6855 0 28.5809 0.89543 28.5809 2V9.19891C28.5809 10.3035 27.6855 11.1989 26.5809 11.1989H5.17578C4.07121 11.1989 3.17578 10.3035 3.17578 9.19891V2Z" fill="#B9DFFC"/>
<path class="p-984D00" d="M15.8779 0H26.5805C27.6851 0 28.5805 0.895431 28.5805 2V11.1989H15.8779V0Z" fill="#58ADE5"/>
<path class="p-E47700" d="M3.97461 20.458H5.84264V24H3.97461V20.458Z" fill="#5FBEFF"/>
<path class="p-984D00" d="M26.2871 20.458H28.1551V24H26.2871V20.458Z" fill="#4D98CB"/>
<path class="p-984D00" d="M1.76172 15.8125H30.3673V21.2677H1.76172V15.8125Z" fill="#B9DFFC"/>
<path class="p-723802" d="M15.8779 15.8125H30.3675V21.2677H15.8779V15.8125Z" fill="#58ADE5"/>
<path class="p-FFA900" d="M7.06738 9.82204H14.664V4.5293H7.06738V9.82204Z" fill="#76B7E2"/>
<path class="p-FF8800" d="M17.2168 4.5293V9.82204H24.8134V4.5293H17.2168Z" fill="#A1D1FD"/>
<path class="p-FBBF00" d="M31.881 11.5027V16.991H0V11.4927C0 10.235 1.11887 9.21191 2.49508 9.21191H29.3754C30.757 9.21191 31.881 10.2398 31.881 11.5027Z" fill="#5FBEFF"/>
<path class="p-FFA900" d="M31.8807 11.5027V16.991H15.8779V9.21191H29.3751C30.7567 9.21191 31.8807 10.2398 31.8807 11.5027Z" fill="#4D98CB"/>
</svg>

<svg width="32" height="24" fill="none" xmlns="http://www.w3.org/2000/svg"><path class="p-E47700" d="M3.176 2a2 2 0 012-2H26.58a2 2 0 012 2v7.199a2 2 0 01-2 2H5.176a2 2 0 01-2-2V2z" fill="#B9DFFC"/><path class="p-984D00" d="M15.878 0H26.58a2 2 0 012 2v9.199H15.878V0z" fill="#58ADE5"/><path class="p-E47700" d="M3.975 20.458h1.868V24H3.975v-3.542z" fill="#5FBEFF"/><path class="p-984D00" d="M26.287 20.458h1.868V24h-1.868v-3.542z" fill="#4D98CB"/><path class="p-984D00" d="M1.762 15.813h28.605v5.455H1.762v-5.456z" fill="#B9DFFC"/><path class="p-723802" d="M15.878 15.813h14.49v5.455h-14.49v-5.456z" fill="#58ADE5"/><path class="p-FFA900" d="M7.067 9.822h7.597V4.529H7.067v5.293z" fill="#76B7E2"/><path class="p-FF8800" d="M17.217 4.53v5.292h7.596V4.529h-7.596z" fill="#A1D1FD"/><path class="p-FBBF00" d="M31.881 11.503v5.488H0v-5.498c0-1.258 1.119-2.281 2.495-2.281h26.88c1.382 0 2.506 1.028 2.506 2.29z" fill="#5FBEFF"/><path class="p-FFA900" d="M31.88 11.503v5.488H15.879v-7.78h13.497c1.382 0 2.506 1.029 2.506 2.292z" fill="#4D98CB"/></svg>
